icons/1_Primary/Capital.com.svg

<svg width="1024" height="1024" viewBox="0 0 1024 1024" fill="none" xmlns="http://www.w3.org/2000/svg">
<g clip-path="url(#clip0_2_1773)">
<path d="M512 1024C794.77 1024 1024 794.77 1024 512C1024 229.23 794.77 0 512 0C229.23 0 0 229.23 0 512C0 794.77 229.23 1024 512 1024Z" fill="#D3B69A"/>
<path d="M422.13 274.88C483.82 249.37 555.65 249.73 617.13 275.88C674.13 299.51 721.44 344.88 748.37 400.29C705.58 419.39 662.95 438.9 620.03 457.69C606.074 434.122 584.162 416.313 558.24 407.47C543.639 402.568 528.213 400.602 512.85 401.685C497.486 402.768 482.488 406.878 468.72 413.78C446.365 425.035 428.344 443.347 417.45 465.88C407.072 487.555 403.998 512.01 408.69 535.58C414.064 562.016 428.779 585.633 450.14 602.11C471.705 618.751 498.442 627.266 525.66 626.16C565.19 625.06 602.88 601.65 621.82 567.04C663.99 585.91 706.06 605.04 748.29 623.7C716.52 690.1 654.72 741.4 583.29 759.7C520.402 776.125 453.621 768.015 396.493 737.013C339.365 706.012 296.169 654.441 275.666 592.762C255.163 531.083 258.889 463.914 286.088 404.881C313.288 345.849 361.923 299.372 422.13 274.88ZM676.07 513.28C678.48 535.22 700.19 552.87 722.22 550.17C745.45 548.4 764.06 524.87 760.13 501.84C757.26 477.39 730.45 459.38 706.75 466.79C687.08 472.18 672.93 492.94 676.07 513.28Z" fill="white"/>
</g>
<defs>
<clipPath id="clip0_2_1773">
<rect width="1024" height="1024" fill="white"/>
</clipPath>
</defs>
</svg>

<svg xmlns="http://www.w3.org/2000/svg" viewBox="0 0 1024 1024">
   <circle cx="512" cy="512" r="512" style="fill:#c09c7c"/>
   <path d="M422.13 274.88c61.69-25.51 133.52-25.15 195 1 57 23.63 104.31 69 131.24 124.41-42.79 19.1-85.42 38.61-128.34 57.4a114.94 114.94 0 0 0-61.79-50.22 116.81 116.81 0 0 0-89.52 6.31 113.78 113.78 0 0 0-51.27 52.1 111.15 111.15 0 0 0-8.76 69.7 112.27 112.27 0 0 0 41.45 66.53 115.91 115.91 0 0 0 75.52 24.05c39.53-1.1 77.22-24.51 96.16-59.12 42.17 18.87 84.24 38 126.47 56.66-31.77 66.4-93.57 117.7-165 136a256 256 0 0 1-161.16-484.82Zm253.94 238.4c2.41 21.94 24.12 39.59 46.15 36.89 23.23-1.77 41.84-25.3 37.91-48.33-2.87-24.45-29.68-42.46-53.38-35.05-19.67 5.39-33.82 26.15-30.68 46.49Z" style="fill:#fff"/>
</svg>
